X: 18
T: 18. Gottes Sohn ist kommen
N: Derived from chor018.krn
C: Johann Sebastian Bach
%%abc-version 2.0
%%abcx-abcm2ps-target-version 5.9.1 (29 Sep 2008)
%%abc-creator hum2abc beta
%%abcx-conversion-date 2019/03/11 17:28:17
%%abc-edited-by Craig Stuart Sapp
%%humdrum-veritas 534006875
%%humdrum-veritas-data 4147665598
%%
%%barnumbers 0
L: 1/4
M: C
%%staves [1 2 3 4]
V: 1 clef=treble
V: 2 clef=treble
V: 3 clef=treble-8
V: 4 clef=bass
K: G
[V:1] GG/A/Bc | 
[V:2] DE/F/GF/E/ | 
[V:3] Bcdc | 
[V:4] G,C,G,,/G,/A, | 
[V:1] de!fermata!d2 | 
[V:2] D/F/ B/A/!fermata!F2 | 
[V:3] B//c//d^c/!fermata!d2 | 
[V:4] B,/A,/G,/A,/!fermata!D,2 | 
[V:1] efgd | 
[V:2] AAGA | 
[V:3] =c/B/c/d/BA | 
[V:4] A,D,E,F, | 
[V:1] B^c!fermata!d2 | 
[V:2] G/F/E!fermata!F2 | 
[V:3] dA!fermata!A2 | 
[V:4] G,A,!fermata!D,2 | 
[V:1] =cABc | 
[V:2] EDDC | 
[V:3] GAG/F/G | 
[V:4] E,F,G,E, | 
[V:1] BA!fermata!G2 | 
[V:2] D3/C/!fermata!B,2 | 
[V:3] GF!fermata!G2 | 
[V:4] D,/C,/D,!fermata!G,,2 | 
[V:1] FGAB | 
[V:2] D^C/B,/A,D | 
[V:3] AGd/^c/B | 
[V:4] D,E,F,G, | 
[V:1] A3/G/FE | 
[V:2] E2-E/D^C/ | 
[V:3] EA2G | 
[V:4] ^C,A,,D,A,, | 
[V:1] !fermata!D4 | 
[V:2] !fermata!A,4 | 
[V:3] !fermata!F4 | 
[V:4] !fermata!D,4 | 
[V:1] GG/A/Bc | 
[V:2] DE/F/GG | 
[V:3] Gcdc- | 
[V:4] B,,C,G,E, | 
[V:1] de!fermata!d2 | 
[V:2] =FE/^F/!fermata!G2 | 
[V:3] c/B/c!fermata!B2 | 
[V:4] D,C,!fermata!G,2 | 
[V:1] GABc | 
[V:2] G/E/ D/C/ B,/A,/ G,/F/ | 
[V:3] BAde/A/ | 
[V:4] E,F,G,E, | 
[V:1] BA!fermata!G2 |]  
[V:2] G3/F/!fermata!D2 |]  
[V:3] B/c/d!fermata!B2 |]  
[V:4] D,2!fermata!G,2 |]  



